Bloom-Colors/scalable/status/stopwatch-symbolic.svg

<svg xmlns="http://www.w3.org/2000/svg" width="16" height="16" version="1">
 <path style="fill:#444444" d="M 10.747,4.6036 C 10.987,4.7419 11.068,5.048 10.928,5.2898 L 8.9315,8.7466 C 8.7919,8.9883 8.4863,9.0716 8.2463,8.9332 8.0072,8.7954 7.9264,8.4893 8.0661,8.2475 L 10.063,4.7907 C 10.202,4.549 10.508,4.4657 10.747,4.6036 Z M 0.23509,2.3789 2.3807,0.23494 C 2.6942,-0.07829 3.199,-0.07834 3.5125,0.23496 L 5.658,2.3788 C 5.9715,2.6921 5.9715,3.1964 5.658,3.5097 L 3.5125,5.6536 C 3.199,5.9669 2.6942,5.9669 2.3806,5.6536 L 0.23514,3.5098 C -0.07839,3.1965 -0.07843,2.6921 0.23509,2.3789 Z"/>
 <path style="fill:#444444" d="M 10,8.5 A 1.5,1.5 0 0 1 8.5,10 1.5,1.5 0 0 1 7,8.5 1.5,1.5 0 0 1 8.5,7 1.5,1.5 0 0 1 10,8.5 Z M 8.5,1 A 7.5,7.5 0 0 0 1,8.5 7.5,7.5 0 0 0 8.5,16 7.5,7.5 0 0 0 16,8.5 7.5,7.5 0 0 0 8.5,1 Z M 8.5,3 A 5.5,5.5 0 0 1 14,8.5 5.5,5.5 0 0 1 8.5,14 5.5,5.5 0 0 1 3,8.5 5.5,5.5 0 0 1 8.5,3 Z"/>
</svg>

<svg width="16" height="16" version="1" xmlns="http://www.w3.org/2000/svg">
<path d="m10.747 4.6036c0.24 0.1383 0.321 0.4444 0.181 0.6862l-1.9965 3.4568c-0.1396 0.2417-0.4452 0.325-0.6852 0.1866-0.2391-0.1378-0.3199-0.4439-0.1802-0.6857l1.9969-3.4568c0.139-0.2417 0.445-0.325 0.684-0.1871zm-10.512-2.2247 2.1456-2.144c0.3135-0.31323 0.8183-0.31328 1.1318 2e-5l2.1455 2.1438c0.3135 0.3133 0.3135 0.8176 0 1.1309l-2.1455 2.1439c-0.3135 0.3133-0.8183 0.3133-1.1319 0l-2.1455-2.1438c-0.31353-0.3133-0.31357-0.8177-5e-5 -1.1309z" fill="#666"/>
<path d="M 10,8.5 A 1.5,1.5 0 0 1 8.5,10 1.5,1.5 0 0 1 7,8.5 1.5,1.5 0 0 1 8.5,7 1.5,1.5 0 0 1 10,8.5 Z M 8.5,1 A 7.5,7.5 0 0 0 1,8.5 7.5,7.5 0 0 0 8.5,16 7.5,7.5 0 0 0 16,8.5 7.5,7.5 0 0 0 8.5,1 Z M 8.5,3 A 5.5,5.5 0 0 1 14,8.5 5.5,5.5 0 0 1 8.5,14 5.5,5.5 0 0 1 3,8.5 5.5,5.5 0 0 1 8.5,3 Z" fill="#666"/>
</svg>
